X:224
T: Die verkaufte Muellerin
N: Q0086W
O: Mitteleuropa, Deutschland (DDR) , Provinz Sachsen
R: Ballade, Menschenhandel, Rettung, Hinrichtung
M: none
L: 1/16
K: G
D2 | G2BAG4d2d2 | c2A2G6
D2 | A6A2B4G4 | B3AA4z2
d2 | B2c2d6d2 | edcBA6
G2 | GGB2d6B2 | c2A2A4G2

@@@ Tune index: 1279
